X:1
T:Variations 6
L:1/8
M:4/4
V:1
V:2 clef=bass
K:C
[V:1] z E F/2 A/2 c e/2 g f e | dBAG FEDB, | G2 EF GFED | ^CEG_B A G3 :|
[V:2] [D,F,C]8 | [G,,F,B,]8 | [C,E,B,]8 | [A,,G,^C]8 :|